X:1
T:The God of Israel Is Real
T:The God of Israel Is Real
T:15th Century French tune, arr. Thomas Helmore
T:Steve Popovich, 2012 & 2017
T:Public Domain Courtesy of the Cyber Hymnal™
C:15th Century French tune, arr. Thomas Helmore
Z:Public Domain
Z:Courtesy of the Cyber Hymnal™
%%score ( 1 2 ) ( 3 4 )
L:1/8
Q:1/4=115
M:none
K:G
V:1 treble 
V:2 treble 
V:3 bass 
V:4 bass 
V:1
 E2 | [EG]2 [B,B]2 [DB]2 [GB]2 | (A2 c2) (B2 [FA]2) | [DG]6 [DA]2 | [DB]2 [DG]2 [CE]2 [DG]2 | %5
w: 1.~The|God of Is- ra-|el * is *|real And|to His own came|
w: 2.~The|God of Is- ra-|el * is *|real And|in His law and|
w: 3.~The|God of Is- ra-|el * is *|real And|at His se- cond|
 [EA]2 [CF]2 [B,E]2 [B,D]2 | [B,E]6 A2 | [CA]2 [A,E]2 E2 [^DF]2 | G4 z2 F2 [^CE]2 | D6 [B,G]2 | %10
w: H- e to re-|veal, The|light and life of|God’s so- le|way Where|
w: pro- phets did con-|ceal The|heal- ing of all|na- tions, now|giv’n, By|
w: com- ing will un-|seal His|right to rule on|earth as in|Heav’n, And|
 [DA]2 [DB]2 [DB]2 [GB]2 | A2 c2 B2 [FA]2 | G6 ||"^Refrain" [Gd]2 | [Fd]6 [GB]2 | [FB]6 [GB]2 | %16
w: souls es- cape the|sti- ng of the|grave.|O|come! O|come! The|
w: One who would be|born in Beth- le-|hem.|O|come! O|come! Ye|
w: crush the power of|Sa- tan, death and|sin.|O|come! O|come! Thou|
 A2 c2 B2 [FA]2 G2 [FA]2 | [GB]2 [DG]2 [CE]2 [DG]2 | ([EA]2 [CF]2 [B,E]2) [B,D]2 | [B,E]6 |] %20
w: God of Is- ra- el Yet|calls to thee, O|Is- * * ra-|el.|
w: peo- ples of the world Re-|ceive your King, the|God~of~Is- * * ra-|el.|
w: King of Is- ra- el Be-|fore Thee all cre-|a~ ~tion * * will|kneel.|
V:2
 E2 | x8 | G6 x2 | x8 | x8 | x8 | x6 (ED) | x8 | (E2 =D4) x4 | D6 x2 | x8 | G6 x2 | G6 || x2 | x8 | %15
 x8 | G6 G2 x4 | x8 | x8 | x6 |] %20
V:3
 [E,G,]2 | [E,B,]2 [D,F,]2 [C,G,]2 [G,,D]2 | E4 ([B,,D]2 [D,C]2) | [G,B,]6 [D,F,]2 | %4
 [G,,G,]2 [B,,G,]2 [C,G,]2 [B,,B,]2 | A,4 [B,,G,]2 [B,,F,]2 | [E,G,]6 A,2 | %7
 [A,,A,]2 [A,C]2 [G,B,]2 [F,A,]2 | G,4 [A,,A,]2 [A,,G,]2 x2 | [D,F,]6 [E,G,]2 | %10
 [D,F,]2 [B,,F,]2 [G,,G,]2 [B,,D]2 | E4 [B,,D]2 [D,C]2 | [G,,B,]6 || [G,B,]2 | [D,A,]6 [E,E]2 | %15
 [B,,D]6 [G,,D]2 | E4 [B,,D]2 [D,C]2 [E,B,]2 [D,D]2 | [G,,D]2 [B,,G,]2 [C,G,]2 [B,,B,]2 | %18
 A,4 [B,,F,]2 x2 | [E,G,]6 |] %20
V:4
 x2 | x8 | (C,2 A,,2) x4 | x8 | x8 | C,2 A,,2 x4 | x6 (C,B,,) | x8 | (E,2 B,,2) x6 | x8 | x8 | %11
 C,2 A,,2 x4 | x6 || x2 | x8 | x8 | C,2 A,,2 x8 | x8 | (C,2 A,,2 B,,2) x2 | x6 |] %20

